packages/ui-icons/src/Basic/32/Server_32.svg

<svg xmlns="http://www.w3.org/2000/svg" viewBox="0 0 40 40"><path d="M24 36a4 4 0 0 0 4-4V8a4 4 0 0 0-4-4h-8a4 4 0 0 0-4 4v24a4 4 0 0 0 4 4Zm-10-4V8a2 2 0 0 1 2-2h8a2 2 0 0 1 2 2v24a2 2 0 0 1-2 2h-8a2 2 0 0 1-2-2Zm9-14h-6v-2h6Zm0-4h-6v-2h6Zm0 8h-6v-2h6Zm-1 6a2 2 0 1 1-2-2 2 2 0 0 1 2 2Z"/></svg>

<svg id="Ready" xmlns="http://www.w3.org/2000/svg" viewBox="0 0 40 40"><title>Megaicons_work_32_1.8_cp</title><path d="M24,36a4,4,0,0,0,4-4V8a4,4,0,0,0-4-4H16a4,4,0,0,0-4,4V32a4,4,0,0,0,4,4ZM14,32V8a2,2,0,0,1,2-2h8a2,2,0,0,1,2,2V32a2,2,0,0,1-2,2H16A2,2,0,0,1,14,32Zm9-14H17V16h6Zm0-4H17V12h6Zm0,8H17V20h6Zm-1,6a2,2,0,1,1-2-2A2,2,0,0,1,22,28Z"/></svg>
